images/aerodrome.svg

<?xml version="1.0" encoding="UTF-8" standalone="no"?>
<svg xmlns:dc="http://purl.org/dc/elements/1.1/" xmlns:cc="http://creativecommons.org/ns#" xmlns:rdf="http://www.w3.org/1999/02/22-rdf-syntax-ns#" xmlns:svg="http://www.w3.org/2000/svg" xmlns="http://www.w3.org/2000/svg" xmlns:sodipodi="http://sodipodi.sourceforge.net/DTD/sodipodi-0.dtd" xmlns:inkscape="http://www.inkscape.org/namespaces/inkscape" width="12" height="12" viewBox="0 0 12 12" version="1.1" id="svg818" sodipodi:docname="aerodrome.svg" inkscape:version="0.92.4 (5da689c313, 2019-01-14)">
  <metadata id="metadata824">
    <rdf:RDF>
      <cc:Work rdf:about="">
        <dc:format>image/svg+xml</dc:format>
        <dc:type rdf:resource="http://purl.org/dc/dcmitype/StillImage" />
        <dc:title></dc:title>
      </cc:Work>
    </rdf:RDF>
  </metadata>
  <defs id="defs822" />
  <sodipodi:namedview pagecolor="#ffffff" bordercolor="#666666" borderopacity="1" objecttolerance="10" gridtolerance="10" guidetolerance="10" inkscape:pageopacity="0" inkscape:pageshadow="2" inkscape:window-width="1881" inkscape:window-height="1051" id="namedview820" showgrid="false" inkscape:pagecheckerboard="true" inkscape:zoom="35.75" inkscape:cx="7.1908162" inkscape:cy="4.5199578" inkscape:window-x="0" inkscape:window-y="0" inkscape:window-maximized="1" inkscape:current-layer="svg818" />
  <path id="outline" d="M 6,0 C 5.254644,0 5,2 5,2 V 3.96875 L 0,7.5 V 8.5 L 5,7.25 V 9.65625 L 3,11 V 12 L 6,11.25 L 9,12 V 11 L 7,9.65625 V 7.25 L 12,8.5 V 7.5 L 7,3.96875 V 2 C 7,2 6.745356,0 6,0 Z" style="opacity:0.5;fill:none;fill-rule:evenodd;stroke:#ffffff;stroke-width:3;stroke-linecap:round;stroke-linejoin:round;stroke-miterlimit:4;stroke-dasharray:none;stroke-opacity:1" inkscape:connector-curvature="0" />
  <path fill-rule="evenodd" d="M 6 0 C 5.254644 0 5 2 5 2 L 5 3.96875 L 0 7.5 L 0 8.5 L 5 7.25 L 5 9.65625 L 3 11 L 3 12 L 6 11.25 L 9 12 L 9 11 L 7 9.65625 L 7 7.25 L 12 8.5 L 12 7.5 L 7 3.96875 L 7 2 C 7 2 6.745356 0 6 0 z" id="path816" />
</svg>

<svg xmlns="http://www.w3.org/2000/svg" width="12" height="12">
    <path d="M6 0c-.745 0-1 2-1 2v1.969L0 7.5v1l5-1.25v2.406L3 11v1l3-.75L9 12v-1L7 9.656V7.25l5 1.25v-1L7 3.969V2s-.255-2-1-2z" opacity=".5" fill="none" stroke="#fff" stroke-width="3" stroke-linecap="round" stroke-linejoin="round"/>
    <path fill-rule="evenodd" d="M6 0c-.745 0-1 2-1 2v1.969L0 7.5v1l5-1.25v2.406L3 11v1l3-.75L9 12v-1L7 9.656V7.25l5 1.25v-1L7 3.969V2s-.255-2-1-2z"/>
</svg>
